X:1
T:Torna di novo
T:Torna di novo
T:Gio.Girolamo Kapsperger
C:Gio.Girolamo Kapsperger
%%score [ 1 2 ] { ( 3 5 ) | 4 }
L:1/8
Q:1/4=120
M:3/2
K:F
V:1 treble-8 nm="Tenor 1" snm="T 1"
V:2 treble-8 nm="Tenor 2" snm="T 2"
V:3 treble nm="BC" snm="BC"
V:5 treble 
V:4 bass 
V:1
 A6 B2 c4 | F6 A2 G2 F2 | B8 A4 | G8 F4 | z12 | d6 e2 f4 | B6 d2 c2 B2 | _e8 d4 | c8 B4 | %9
w: Tor- na di|no- vo'al- la sua|fiam- m'an-|ti- ca,||tor- na di|no- vo'al- la sua|fiam- m'an-|ti- ca,|
w: Ne per che|s'ar- da'o- si con-|su- mi'og-|nho- ra,||ne per- che|s'ar- da'o si con-|su- mi'og-|nho- ra,|
w: E' si tal|vol- t'al- l'a- mo-|ro- sa'o-|bli- o,||e' si tal|vol t'al- l'a- mo-|ro- sa'o-|bli- o,|
w: Co- si per|for- z'a ca- la-|mi- ta'il|fer- ro,||co- si per|for- z'a ca- la-|mi- ta'il|fer- ro,|
[M:4/4] z fcd _e3 e | d4 g2 g2- | g3 _e d4 |1 c8 :|2 c4 z _eef || d4 z ffg | e4 z2 (g2 | %16
w: il mio do- glio- so|cor, bel- lez-|* ze'a- ma-|te,|te, che vi- ve'in|voi, che vi- v'in|voi e|
w: sen- te men fe- ro'il|suo cru- del|_ mar- ti-|re,|re, se vi- ve'in|voi, se vi- e'in|voi, sol|
w: cer- ca ri- trar- si'ahi|che mag- gior|_ lac- co-|di,|di, vo- stra bel-|ta, vo- stra bel-|ta, che|
w: co- me non men dal|suo vi- gor|_ ti- ra-|to,|to, che lo man-|tien, che lo man-|tien, per|
 a2) f/e/f/d/ e4 | d4 z dd_e |"^b" cfed c4 | z8 | z8 | z d_ef g4- | g3 B A4 | G8 :| %24
w: _ voi la tor- men- ta-|te, che vi- ve'in|voi, che vi- ve'in voi,|||e voi la tor-|* men- ta-|te.|
w: _ per do- ver lan- gui-|re, se vi- ve'in|voin se vi- ve'in voi,|||sol per do- ver|_ lan- gui-|re.|
w: _ vi- t'an- cor li ren-|de, vo- stra bel-|ta, vo- stra bel- ta,|||che vi- t'an- cor|_ li ren-|de.|
w: _ na- tu- ral suo sta-|to, che lo man-|tien, che lo man- tien,|||per na- tu- ral|_ suo sta-|to.|
V:2
 F6 G2 A4 | D6 E2 F2 G2 | D4 E4 F4- | F4 E4 F4 | A6 B2 c4 | F6 G2 F2 D2 | _E6 B2 A2 G2 | %7
w: Tor- na di|no- vo'al- la sua|fiam- ma an-|* ti- ca,|tor- na di|no- vo'al- la sua|fiam- m'al- la sua|
w: Ne per che|s'ar- da'o si con-|su- mi'og- nho-|* * ra,|ne per che|s'ar- da'o si con-|su- * * *|
w: E' si tal|vol- t'al- l'a- mo-|ro- sa'o bli-|* * o,|e' si tal|vol t'al- l'a- mo-|ro- * * *|
w: Co- si per|for- z'a ca- la-|mi- ta'il fer-|* * ro,|co- si per|for- z'a ca- la-|mi- * * *|
 G4 A4 B4- | B4 A4 B4 |[M:4/4] z4 z cGA | =B3 c d3 A | =B2 c2 c2 B2 |1 c8 :|2 z8 || z BBc A4 | %15
w: fiam- ma an-|* ti- ca,|il mio do-|glio- so cor, bel-|lez- ze'a- ma- *|te,||che vi- ve'in voi|
w: mi og- nho-|* * ra,|sen- te men|fer- ro'il suo cru-|del mar- ti- *|re,||se vi- ve'in voi,|
w: sa'o- bli- *|* * o,|cer- ca ri-|trar- si'ahi che mag-|gior lac- co- *|di,||vo- stra bel- ta,|
w: ta'il fer- *|* * ro,|co- me non|man dal suo vi-|gor ti- ra- *|to,||che lo man- tien,|
 z ccd =B4 | z8 | z4 z BBc | AdcB A4 | d8- | d2 B/A/B/G/ A4 | A2 z2 z GAB | c2 G2 G2 ^F2 | G8 :| %24
w: che vi- ve'in voi,||che vi- ve'in|voi, che vi- ve'in voi,|e|_ voi la tor- men- ta-|te, e voi la|tor- men- ta- *|te.|
w: se i- ve'in voi,||se- vi- ve'in|voi, se vi- ve'in voi,|sol|_ per do- ver lan- gui-|re, sol per do-|ver lan- gui- *|re.|
w: vo- stra bel- ta,||vo- stra bel-|ta, vo- stra bel- ta,|che|_ vi- t'an- cor li ren-|de, che vi- t'an-|cor li ren- *|de.|
w: che lo man- tien,||che lo man-|tien che lo man- tien,|per|_ na- tu- ral suo sta-|to, per na- tu-|ral suo sta- *|to.|
V:3
 [FAc]12 | [DFB]12 | [DB]8 [Ac]4 | [Gc]8 [CFA]4 | [FAc]12 | [Fd]12 | [GB]12 | [G_e]8 [Fd]4 | %8
 [Fc]8 [DF]4 |[M:4/4] [DB]2 [Ac]2 [G_e]4 | [DG=B]8 | G2 c4 =B2 |1 [EGc]8 :|2 [Gc]4 [G_e]4 || %14
 [DB]4 [Ac]4 | [Ec]4 [D=B]4 | [FA]4 [Ec]4 | [^FA]4 [DB]4 | [FAc]8 | [Ad]8 | [DB]2 [GB]2 [^FA]4 | %21
 [DA]2 [_EG]2 [GB]4 | c4 d4 | [DG=B]8 :| %24
V:4
 F,8 F,4 | B,,8 B,,4 | G,,8 F,,4 | C,8 F,,4 | F,8 F,4 | D,8 D,4 | _E,8 E,4 | C,8 B,,4 | F,8 B,,4 | %9
[M:4/4] B,,2 F,2 C,4 | G,,8 | G,,8 |1 C,8 :|2 C,4 C,4 || G,,4 F,,4 | C,4 G,,4 | D,4 A,,4 | %17
 D,4 B,,4 | F,8 | ^F,8 | G,3 _E, D,4 | D,B,,C,D, _E,4 | C,4 [D,A,]4 | G,,8 :| %24
V:5
 x12 | x12 | x12 | x12 | x12 | x12 | x12 | x12 | x12 |[M:4/4] x8 | x8 | D8 |1 x8 :|2 x8 || x8 | %15
 x8 | x8 | x8 | x8 | x8 | x8 | x8 | E2 G4 ^F2 | x8 :| %24

